!!!COM:	Bach, Johann Sebastian
!!!CDT:	1685/02/21/-1750/07/28/
!!!OTL@@DE:	Meine Seele erhebet den Herrn
!!!SCT:	BWV 10/7
!!!PC#:	358
!!!AGN:	chorale
**kern	**kern	**kern	**kern
*ICvox	*ICvox	*ICvox	*ICvox
*Ibass	*Itenor	*Ialto	*Isoprn
*I"Bass	*I"Tenor	*I"Alto	*I"Soprano
*	*oclefC4	*oclefC3	*oclefC1
*clefF4	*clefGv2	*clefG2	*clefG2
*k[b-e-]	*k[b-e-]	*k[b-e-]	*k[b-e-]
*g:	*g:	*g:	*g:
*M4/4	*M4/4	*M4/4	*M4/4
*met(c)	*met(c)	*met(c)	*met(c)
*MM100	*MM100	*MM100	*MM100
=1-	=1-	=1-	=1-
2G	2B-	2g	2dd
2A	2c	2f	2ff
=2	=2	=2	=2
4B-	4d	4f	4dd
4A	4c	4f#	4dd
4G	4B-	4g	4dd
4F#	4A	4a	4dd
=3	=3	=3	=3
4G	4B-	4g	2ee-
4A	2c	2fnX	.
4B-	.	.	2dd
4G	4B-	4f	.
=4	=4	=4	=4
4E-	2B-	2g	2cc
4C	.	.	.
2F	2A	2f	2cc
=5	=5	=5	=5
1BB-;	1d;	1f;	1b-;
=6	=6	=6	=6
2B-	1B-	1f	2dd
2D	.	.	2ff
=7	=7	=7	=7
4F	4A	4f	4cc
4A	4c	4f	4cc
4c	4G	4e-	4cc
4E-	4c	4g	4g
=8	=8	=8	=8
4D	2.d	2g	2b-
4C	.	.	.
2D	.	2f#	2a
.	4c	.	.
=9	=9	=9	=9
1GG;	1B-;	1d;	1g;
=10	=10	=10	=10
2G	2B-	2g	2dd
2F	2c	2a	2ff
=11	=11	=11	=11
4B-	4d	2.f	4dd
4c	4c	.	4dd
[2d	4B-	.	4dd
.	4A	4f#	4dd
=12	=12	=12	=12
4d]	4B-	4g	2ee-
4c	4c	4a	.
4B-	4F	[2b-	2dd
4BB-	4f	.	.
=13	=13	=13	=13
4E-	2g	4b-]	2cc
4C	.	4b-	.
2F	4f	4b-	2cc
.	4c	4a	.
=14	=14	=14	=14
1BB-;	1d;	1f;	1b-;
=15	=15	=15	=15
4BB-	2r	1r	2dd
4C	.	.	.
4D	4F	.	2ff
4E-	4G	.	.
=16	=16	=16	=16
2.F	4A	4f	4cc
.	4B-	4g	4cc
.	[2c	4a	4cc
4G	.	4b-	4cc
=17	=17	=17	=17
4A	4c]	2cc	2cc
4B-	4d	.	.
2c	4e	2c	4g
.	4f#	.	4a
=18	=18	=18	=18
4BB-	2g	2d	2b-
4C	.	.	.
4D	4fnX	4d	2a
4E-X	4e-X	4c	.
=19	=19	=19	=19
2F	4d	4B	[1g
.	4B	4d	.
4E-	4c	4g	.
4D	[4d	4f	.
=20	=20	=20	=20
4C	4d]	[1e-	1g_
4D	4G	.	.
4E-	[2c	.	.
4F	.	.	.
=21	=21	=21	=21
1G	2c]	2e-]	1g_
.	4B	4d	.
.	4A	4c	.
=22	=22	=22	=22
1GG;	1B;	1d;	1g;]
==	==	==	==
*-	*-	*-	*-
!!!YOR1: 371 vierstimmige Choralges&auml;nge von Johann Sebastian Bach, 
!!!YOR2: 4th ed. by Alfred D&ouml;rffel (Leipzig: Breitkopf und H&auml;rtel, 
!!!YOR2: c.1875). 178 pp. Plate "V.A.10".  reprint: J.S. Bach, 371 Four-Part 
!!!YOR4: Chorales (New York: Associated Music Publishers, Inc., c.1940).
!!!SMS: B&H, 4th ed, Alfred D&ouml;rffel, c.1875, plate V.A.10
!!!EED:  Craig Stuart Sapp
!!!EEV:  2009/05/22
